X: 5858
T: Calliope House
R: jig
M: 6/8
K: Dmajor
|:~a3 faa|eff def|gag fgf|e/f/ge edB|ABA ~A2F|
~A2B ~d2e|1 fgf fed|~e3 efg:|2 fgf edc|~d3 ABc||
|:dAA fAA|ede fed|~B2e ~e2d|efe edB|ABA ~A2F|
~A2B ~d2e|1 fgf fed|~e3 ABc:|2 fgf edc|~d3 efg||

